src/lib/packages/icons/src/assets/line/dislike-square.svg

<svg width="24" height="24" viewBox="0 0 24 24" fill="none" xmlns="http://www.w3.org/2000/svg">
<path d="M17.625 2.25H6.375C3.715 2.25 2.25 3.715 2.25 6.375V17.625C2.25 20.285 3.715 21.75 6.375 21.75H17.625C20.285 21.75 21.75 20.285 21.75 17.625V6.375C21.75 3.715 20.285 2.25 17.625 2.25ZM20.25 17.625C20.25 19.465 19.465 20.25 17.625 20.25H6.375C4.535 20.25 3.75 19.465 3.75 17.625V6.375C3.75 4.535 4.535 3.75 6.375 3.75H17.625C19.465 3.75 20.25 4.535 20.25 6.375V17.625ZM15.958 7H9.93896C8.46096 7 8.00198 7.76697 7.72498 8.59497L6.66895 11.762C6.38595 12.614 6.45702 13.398 6.86902 13.97C7.15302 14.364 7.73303 14.833 8.88403 14.833H10.1949V15.791C10.1949 16.573 10.584 17.299 11.234 17.732C11.5 17.909 11.804 18 12.113 18C12.277 18 12.4421 17.974 12.6021 17.922C13.0661 17.773 13.43 17.425 13.611 16.94L14.6541 13.777H15.958C16.809 13.777 17.5 13.086 17.5 12.235V8.53998C17.5 7.69098 16.809 7 15.958 7ZM13.399 12.793L12.187 16.471L12.066 16.485C11.834 16.33 11.6949 16.071 11.6949 15.792V14.084C11.6949 13.67 11.3589 13.334 10.9449 13.334H8.88403C8.48203 13.334 8.19706 13.249 8.08606 13.093C7.96906 12.93 7.97102 12.602 8.09302 12.237L9.14795 9.07001C9.30995 8.58701 9.33797 8.5 9.93896 8.5L13.75 8.526V12.38C13.589 12.47 13.459 12.61 13.399 12.793ZM16 12.236L15.25 12.253V8.53601L16 8.54102V12.236Z" fill="currentColor"/>
</svg>

<svg xmlns="http://www.w3.org/2000/svg" width="24" height="24" fill="none"><path fill="currentColor" d="M17.625 2.25H6.375c-2.66 0-4.125 1.465-4.125 4.125v11.25c0 2.66 1.465 4.125 4.125 4.125h11.25c2.66 0 4.125-1.465 4.125-4.125V6.375c0-2.66-1.465-4.125-4.125-4.125Zm2.625 15.375c0 1.84-.785 2.625-2.625 2.625H6.375c-1.84 0-2.625-.785-2.625-2.625V6.375c0-1.84.785-2.625 2.625-2.625h11.25c1.84 0 2.625.785 2.625 2.625v11.25ZM15.958 7H9.939c-1.478 0-1.937.767-2.214 1.595l-1.056 3.167c-.283.852-.212 1.636.2 2.208.284.394.864.863 2.015.863h1.31v.958c0 .782.39 1.508 1.04 1.941a1.582 1.582 0 0 0 1.368.19 1.59 1.59 0 0 0 1.009-.982l1.043-3.163h1.304c.851 0 1.542-.691 1.542-1.542V8.54c0-.849-.691-1.54-1.542-1.54Zm-2.559 5.793-1.212 3.678-.121.014a.832.832 0 0 1-.371-.693v-1.708a.75.75 0 0 0-.75-.75H8.884c-.402 0-.687-.085-.798-.241-.117-.163-.115-.491.007-.856L9.148 9.07c.162-.483.19-.57.791-.57l3.811.026v3.854a.74.74 0 0 0-.351.413ZM16 12.236l-.75.017V8.536l.75.005v3.695Z"/></svg>
